X:16
T:Francis Murray's Musicale
S:American Veteran Fifer, #16
C:By A.F. Hopkins Co.A.154th O.V.I.
M:6/8
L:1/8
Q:1/8=300
K:D 
%%MIDI program 72
%%MIDI transpose 8
%%MIDI ratio 3 1
|: A | ABc dcd | ecA cde | fef ged | cAA A3 |
ABc dcd | ecA cde | fef ged | cAA A2 :|
|: d | efg a2a | ged cde |  efg a2a | gef g2z |
efg a2a | ged cde | fef ged | cAA A2 :|


